;Sliced by ideaMaker 5.0.6.8380, 2025-02-12 05:13:50 UTC-0300
;Slicer Version: 5.0.6.8380
;Dimension: 300.000 300.000 605.000 0.400 0.400
;Plate Shape: 0
;Origin Center: 0
;Extruder Offset #1: 0.000 0.000
;Filament Diameter #1: 1.750
;Filament Diameter #2: 1.750
;Filament Compensation #1: 90.00
;Filament Compensation #2: 90.00
;Filament Density #1: 1240.00
;Filament Density #2: 1240.00
;Filament Type #1: PLA
;Filament Type #2: PLA
;Filament Name #1: [Raise3D] Premium PLA 1.75mm
;Filament Name #2: [Raise3D] Premium PLA 1.75mm
;Firmware: RepRapFirmware
;Bounding Box: 127.892 172.108 98.438 202.809 0.000 24.220
;Model Gap: 0.170
M221 T0 S90.00
M140 S55.00
M104 T0 S205.00
M109 T0 S205.00
T0
M190 S55.00
M572 D0 S0.03
M572 D1 S0.03
G21
G90
M82
M107
G28
G1 Z0 F500
G92 E0
G1 Z0.2 F400
G1 X60 Y-2 F800
G1 X140 Y-2 E12 F200
G1 Z5 E15 F200
G92 E0
G1 F9000.0
M117 Printing...
M1001
;TOTAL_NUM: 1
;PRINTING_TIME: 0
;REMAINING_TIME: 5624
M106 S0
;LAYER:-2
;Z:0.400
;HEIGHT:0.500
;PRINTING: NON-OBJECT
;PRINTING_ID: -1
M204 T1500.00
G0 F9000 X144.970 Y187.412
G0 F300 Z0.400
M204 P1000.00
;TYPE:RAFT
;WIDTH:0.800
G1 F480 X145.379 Y187.112 E0.0844
G1 X145.741 Y186.892 E0.1548
G1 X146.340 Y186.571 E0.2678
G1 X146.939 Y186.299 E0.3772
G1 X147.897 Y185.994 E0.5444
G1 X148.496 Y185.853 E0.6468
G1 X149.505 Y185.740 E0.8156
G1 X150.148 Y185.719 E0.9226
G1 X151.207 Y185.812 E1.0994
G1 X151.654 Y185.883 E1.1746
G1 X152.115 Y185.997 E1.2536
G1 X152.715 Y186.180 E1.3579
G1 X153.189 Y186.350 E1.4417
G1 X153.663 Y186.573 E1.5288
G1 X154.210 Y186.864 E1.6318
G1 X154.637 Y187.123 E1.7149
G1 X155.022 Y187.405 E1.7942
G1 X155.530 Y187.823 E1.9037
G1 X155.899 Y188.159 E1.9866
G1 X156.213 Y188.499 E2.0636
G1 X156.684 Y189.076 E2.1875
G1 X156.939 Y189.425 E2.2594
G1 X157.153 Y189.774 E2.3274
G1 X157.482 Y190.383 E2.4425
G1 X157.711 Y190.869 E2.5319
G1 X157.881 Y191.339 E2.6150
G1 X158.066 Y191.949 E2.7210
G1 X158.187 Y192.437 E2.8046
G1 X158.259 Y192.909 E2.8840
G1 X158.322 Y193.555 E2.9920
G1 X158.345 Y194.069 E3.0775
G1 X158.325 Y194.543 E3.1564
G1 X158.255 Y195.240 E3.2729
G1 X158.181 Y195.713 E3.3525
G1 X158.073 Y196.157 E3.4285
G1 X157.886 Y196.770 E3.5351
G1 X157.656 Y197.387 E3.6446
G1 X157.166 Y198.328 E3.8211
G1 X156.857 Y198.820 E3.9177
G1 X156.250 Y199.581 E4.0796
G1 X155.804 Y200.060 E4.1884
G1 X155.030 Y200.713 E4.3568
G1 X154.622 Y201.012 E4.4409
G1 X154.247 Y201.240 E4.5139
G1 X153.681 Y201.544 E4.6208
G1 X153.061 Y201.826 E4.7340
G1 X152.103 Y202.131 E4.9012
G1 X151.496 Y202.274 E5.0049
G1 X150.520 Y202.384 E5.1683
G1 X149.860 Y202.408 E5.2781
G1 X148.856 Y202.320 E5.4457
G1 X148.346 Y202.242 E5.5315
G1 X147.959 Y202.148 E5.5977
G1 X147.286 Y201.946 E5.7146
G1 X146.811 Y201.775 E5.7985
G1 X146.431 Y201.601 E5.8680
G1 X145.797 Y201.265 E5.9874
G1 X145.363 Y201.002 E6.0718
G1 X144.974 Y200.717 E6.1520
G1 X144.470 Y200.302 E6.2605
G1 X144.101 Y199.966 E6.3435
G1 X143.777 Y199.614 E6.4231
G1 X143.311 Y199.042 E6.5458
G1 X143.061 Y198.700 E6.6162
G1 X142.797 Y198.263 E6.7011
G1 X142.513 Y197.734 E6.8010
G1 X142.240 Y197.136 E6.9103
G1 X141.935 Y196.178 E7.0775
G1 X141.810 Y195.675 E7.1637
G1 X141.744 Y195.241 E7.2367
G1 X141.678 Y194.569 E7.3490
G1 X141.656 Y193.923 E7.4565
G1 X141.747 Y192.873 E7.6318
G1 X141.823 Y192.396 E7.7121
G1 X141.930 Y191.959 E7.7869
G1 X142.114 Y191.353 E7.8922
G1 X142.344 Y190.739 E8.0013
G1 X142.834 Y189.797 E8.1778
G1 X143.143 Y189.305 E8.2745
G1 X143.748 Y188.547 E8.4357
G1 X144.200 Y188.061 E8.5461
G1 X144.970 Y187.412 E8.7136
G0 F9000 X144.228 Y188.265
G1 F480 X144.228 Y199.864 E10.6425
G0 F9000 X146.652 Y201.525
G1 F480 X146.652 Y186.605 E13.1237
G0 F9000 X149.076 Y185.949
G1 F480 X149.076 Y202.178 E15.8226
G0 F9000 X151.500 Y202.110
G1 F480 X151.500 Y186.021 E18.4982
G0 F9000 X153.924 Y186.893
G1 F480 X153.924 Y201.233 E20.8830
G0 F9000 X156.348 Y199.202
G1 F480 X156.348 Y188.918 E22.5932
;PRINTING_TIME: 19
;REMAINING_TIME: 5605
M106 S128
;LAYER:-2
;Z:0.900
;HEIGHT:0.500
;PRINTING: NON-OBJECT
;PRINTING_ID: -1
G0 F300 Z0.900
G0 F9000 X156.684 Y189.076
;TYPE:RAFT
;WIDTH:0.800
G1 F960 X156.939 Y189.425 E22.6651
G1 X157.153 Y189.774 E22.7332
G1 X157.482 Y190.383 E22.8483
G1 X157.711 Y190.869 E22.9376
G1 X157.881 Y191.339 E23.0207
G1 X158.066 Y191.949 E23.1267
G1 X158.187 Y192.437 E23.2104
G1 X158.259 Y192.909 E23.2898
G1 X158.322 Y193.555 E23.3977
G1 X158.345 Y194.069 E23.4833
G1 X158.325 Y194.543 E23.5622
G1 X158.255 Y195.240 E23.6787
G1 X158.181 Y195.713 E23.7583
G1 X158.073 Y196.157 E23.8343
G1 X157.886 Y196.770 E23.9408
G1 X157.656 Y197.387 E24.0503
G1 X157.166 Y198.328 E24.2268
G1 X156.857 Y198.820 E24.3234
G1 X156.250 Y199.581 E24.4853
G1 X155.804 Y200.060 E24.5941
G1 X155.030 Y200.713 E24.7625
G1 X154.622 Y201.012 E24.8467
G1 X154.247 Y201.240 E24.9196
G1 X153.681 Y201.544 E25.0265
G1 X153.061 Y201.826 E25.1397
G1 X152.103 Y202.131 E25.3069
G1 X151.496 Y202.274 E25.4107
G1 X150.520 Y202.384 E25.5740
G1 X149.860 Y202.408 E25.6838
G1 X148.856 Y202.320 E25.8514
G1 X148.346 Y202.242 E25.9372
G1 X147.959 Y202.148 E26.0035
G1 X147.286 Y201.946 E26.1203
G1 X146.811 Y201.775 E26.2043
G1 X146.431 Y201.601 E26.2738
G1 X145.797 Y201.265 E26.3931
G1 X145.363 Y201.002 E26.4775
G1 X144.974 Y200.717 E26.5577
G1 X144.470 Y200.302 E26.6663
G1 X144.101 Y199.966 E26.7492
G1 X143.777 Y199.614 E26.8288
G1 X143.311 Y199.042 E26.9515
G1 X143.061 Y198.700 E27.0220
G1 X142.797 Y198.263 E27.1069
G1 X142.513 Y197.734 E27.2067
G1 X142.240 Y197.136 E27.3160
G1 X141.935 Y196.178 E27.4832
G1 X141.810 Y195.675 E27.5694
G1 X141.744 Y195.241 E27.6424
G1 X141.678 Y194.569 E27.7547
G1 X141.656 Y193.923 E27.8622
G1 X141.747 Y192.873 E28.0375
G1 X141.823 Y192.396 E28.1178
G1 X141.930 Y191.959 E28.1926
G1 X142.114 Y191.353 E28.2979
G1 X142.344 Y190.739 E28.4070
G1 X142.834 Y189.797 E28.5836
G1 X143.143 Y189.305 E28.6802
G1 X143.748 Y188.547 E28.8415
G1 X144.200 Y188.061 E28.9518
G1 X144.970 Y187.412 E29.1193
G1 X145.379 Y187.112 E29.2037
G1 X145.741 Y186.892 E29.2741
G1 X146.340 Y186.571 E29.3871
G1 X146.939 Y186.299 E29.4965
G1 X147.897 Y185.994 E29.6637
G1 X148.496 Y185.853 E29.7661
G1 X149.505 Y185.740 E29.9349
G1 X150.148 Y185.719 E30.0419
G1 X151.207 Y185.812 E30.2187
G1 X151.654 Y185.883 E30.2940
G1 X152.115 Y185.997 E30.3729
G1 X152.715 Y186.180 E30.4772
G1 X153.189 Y186.350 E30.5610
G1 X153.663 Y186.573 E30.6481
G1 X154.210 Y186.864 E30.7511
G1 X154.637 Y187.123 E30.8342
G1 X155.022 Y187.405 E30.9136
G1 X155.530 Y187.823 E31.0230
G1 X155.899 Y188.159 E31.1060
G1 X156.213 Y188.499 E31.1829
G1 X156.684 Y189.076 E31.3068
G0 F9000 X156.348 Y188.918
G1 F960 X156.348 Y199.202 E33.0170
G0 F9000 X153.924 Y201.233
G1 F960 X153.924 Y186.893 E35.4018
G0 F9000 X151.500 Y186.021
G1 F960 X151.500 Y202.110 E38.0774
G0 F9000 X149.076 Y202.178
G1 F960 X149.076 Y185.949 E40.7763
G0 F9000 X146.652 Y186.605
G1 F960 X146.652 Y201.525 E43.2575
G0 F9000 X144.228 Y199.864
G1 F960 X144.228 Y188.265 E45.1864
;PRINTING_TIME: 29
;REMAINING_TIME: 5595
M106 S255
;LAYER:-1
;Z:1.280
;HEIGHT:0.380
;PRINTING: NON-OBJECT
;PRINTING_ID: -1
G0 F300 Z1.280
G0 F9000 X146.566 Y186.600
;TYPE:RAFT
;WIDTH:0.600
G1 F1800 X153.440 Y186.600 E45.8380
G0 F9000 X155.313 Y187.800
G1 F1800 X144.695 Y187.800 E46.8445
G0 F9000 X143.540 Y189.000
G1 F1800 X156.467 Y189.000 E48.0699
G0 F9000 X157.247 Y190.200
G1 F1800 X142.760 Y190.200 E49.4431
G0 F9000 X142.225 Y191.400
G1 F1800 X157.775 Y191.400 E50.9171
G0 F9000 X158.091 Y192.600
G1 F1800 X141.911 Y192.600 E52.4508
G0 F9000 X141.788 Y193.800
G1 F1800 X158.213 Y193.800 E54.0078
G0 F9000 X158.159 Y195.000
G1 F1800 X141.840 Y195.000 E55.5547
G0 F9000 X142.068 Y196.200
G1 F1800 X157.934 Y196.200 E57.0586
G0 F9000 X157.514 Y197.400
G1 F1800 X142.492 Y197.400 E58.4826
G0 F9000 X143.141 Y198.600
G1 F1800 X156.852 Y198.600 E59.7823
G0 F9000 X155.882 Y199.800
G1 F1800 X144.110 Y199.800 E60.8982
G0 F9000 X145.591 Y201.000
G1 F1800 X154.411 Y201.000 E61.7342
G0 F9000 X151.083 Y202.200
G1 F1800 X148.868 Y202.200 E61.9442
;PRINTING_TIME: 36
;REMAINING_TIME: 5588
;LAYER:-1
;Z:1.500
;HEIGHT:0.220
;PRINTING: NON-OBJECT
;PRINTING_ID: -1
G0 F300 Z1.500
G0 F9000 X143.604 Y199.275
;TYPE:RAFT
;WIDTH:0.400
;FLOW:180.0
G1 F3600 X142.270 Y196.966 E62.1198
G0 F9000 X141.826 Y195.254
G1 F3600 X144.873 Y200.531 E62.5211
G0 F9000 X145.780 Y201.160
G1 F3600 X141.743 Y194.168 E63.0528
G0 F9000 X141.788 Y193.304
G1 F3600 X146.561 Y201.571 E63.6814
G0 F9000 X147.268 Y201.855
G1 F3600 X141.882 Y192.526 E64.3908
G0 F9000 X142.042 Y191.860
G1 F3600 X147.927 Y202.054 E65.1660
G0 F9000 X148.550 Y202.191
G1 F3600 X142.235 Y191.252 E65.9978
G0 F9000 X142.455 Y190.693
G1 F3600 X149.135 Y202.263 E66.8776
G0 F9000 X149.709 Y202.314
G1 F3600 X142.713 Y190.197 E67.7991
G0 F9000 X142.978 Y189.713
G1 F3600 X150.252 Y202.312 E68.7571
G0 F9000 X150.773 Y202.273
G1 F3600 X143.268 Y189.274 E69.7456
G0 F9000 X143.584 Y188.878
G1 F3600 X151.284 Y202.216 E70.7598
G0 F9000 X151.775 Y202.124
G1 F3600 X143.904 Y188.492 E71.7965
G0 F9000 X144.240 Y188.132
G1 F3600 X152.246 Y201.999 E72.8510
G0 F9000 X152.706 Y201.853
G1 F3600 X144.605 Y187.822 E73.9179
G0 F9000 X144.971 Y187.514
G1 F3600 X153.157 Y201.692 E74.9961
G0 F9000 X153.588 Y201.496
G1 F3600 X145.351 Y187.229 E76.0810
G0 F9000 X145.749 Y186.978
G1 F3600 X154.005 Y201.277 E77.1683
G0 F9000 X154.414 Y201.044
G1 F3600 X146.164 Y186.754 E78.2550
G0 F9000 X146.588 Y186.546
G1 F3600 X154.805 Y200.778 E79.3372
G0 F9000 X155.178 Y200.482
G1 F3600 X147.023 Y186.357 E80.4113
G0 F9000 X147.482 Y186.211
G1 F3600 X155.544 Y200.174 E81.4731
G0 F9000 X155.896 Y199.843
G1 F3600 X147.942 Y186.065 E82.5208
G0 F9000 X148.421 Y185.954
G1 F3600 X156.229 Y199.477 E83.5492
G0 F9000 X156.545 Y199.082
G1 F3600 X148.926 Y185.886 E84.5526
G0 F9000 X149.436 Y185.827
G1 F3600 X156.854 Y198.675 E85.5296
G0 F9000 X157.133 Y198.217
G1 F3600 X149.967 Y185.805 E86.4735
G0 F9000 X150.526 Y185.832
G1 F3600 X157.391 Y197.721 E87.3776
G0 F9000 X157.637 Y197.206
G1 F3600 X151.100 Y185.883 E88.2386
G0 F9000 X151.698 Y185.977
G1 F3600 X157.846 Y196.626 E89.0484
G0 F9000 X158.029 Y196.000
G1 F3600 X152.341 Y186.149 E89.7975
G0 F9000 X153.014 Y186.372
G1 F3600 X158.164 Y195.293 E90.4759
G0 F9000 X158.247 Y194.494
G1 F3600 X153.755 Y186.715 E91.0674
G0 F9000 X154.563 Y187.172
G1 F3600 X158.240 Y193.540 E91.5517
G0 F9000 X158.073 Y192.309
G1 F3600 X155.563 Y187.962 E91.8822
;PRINTING_TIME: 47
;REMAINING_TIME: 5577
;LAYER:-1
;Z:1.720
;HEIGHT:0.220
;FLOW:100.0
;PRINTING: NON-OBJECT
;PRINTING_ID: -1
G0 F300 Z1.720
G0 F9000 X155.563 Y187.962
;TYPE:RAFT
;WIDTH:0.400
;FLOW:180.0
G1 F3600 X158.073 Y192.309 E92.2128
G0 F9000 X158.240 Y193.540
G1 F3600 X154.563 Y187.172 E92.6971
G0 F9000 X153.755 Y186.715
G1 F3600 X158.247 Y194.494 E93.2886
G0 F9000 X158.164 Y195.293
G1 F3600 X153.014 Y186.372 E93.9670
G0 F9000 X152.341 Y186.149
G1 F3600 X158.029 Y196.000 E94.7161
G0 F9000 X157.846 Y196.626
G1 F3600 X151.698 Y185.977 E95.5259
G0 F9000 X151.100 Y185.883
G1 F3600 X157.637 Y197.206 E96.3869
G0 F9000 X157.391 Y197.721
G1 F3600 X150.526 Y185.832 E97.2910
G0 F9000 X149.967 Y185.805
G1 F3600 X157.133 Y198.217 E98.2348
G0 F9000 X156.854 Y198.675
G1 F3600 X149.436 Y185.827 E99.2118
G0 F9000 X148.926 Y185.886
G1 F3600 X156.545 Y199.082 E100.2153
G0 F9000 X156.229 Y199.477
G1 F3600 X148.421 Y185.954 E101.2437
G0 F9000 X147.942 Y186.065
G1 F3600 X155.896 Y199.843 E102.2914
G0 F9000 X155.544 Y200.174
G1 F3600 X147.482 Y186.211 E103.3532
G0 F9000 X147.023 Y186.357
G1 F3600 X155.178 Y200.482 E104.4273
G0 F9000 X154.805 Y200.778
G1 F3600 X146.588 Y186.546 E105.5095
G0 F9000 X146.164 Y186.754
G1 F3600 X154.414 Y201.044 E106.5962
G0 F9000 X154.005 Y201.277
G1 F3600 X145.749 Y186.978 E107.6835
G0 F9000 X145.351 Y187.229
G1 F3600 X153.588 Y201.496 E108.7684
G0 F9000 X153.157 Y201.692
G1 F3600 X144.971 Y187.514 E109.8466
G0 F9000 X144.605 Y187.822
G1 F3600 X152.706 Y201.853 E110.9135
G0 F9000 X152.246 Y201.999
G1 F3600 X144.240 Y188.132 E111.9680
G0 F9000 X143.904 Y188.492
G1 F3600 X151.775 Y202.124 E113.0046
G0 F9000 X151.284 Y202.216
G1 F3600 X143.584 Y188.878 E114.0189
G0 F9000 X143.268 Y189.274
G1 F3600 X150.773 Y202.273 E115.0074
G0 F9000 X150.252 Y202.312
G1 F3600 X142.978 Y189.713 E115.9654
G0 F9000 X142.713 Y190.197
G1 F3600 X149.709 Y202.314 E116.8868
G0 F9000 X149.135 Y202.263
G1 F3600 X142.455 Y190.693 E117.7667
G0 F9000 X142.235 Y191.252
G1 F3600 X148.550 Y202.191 E118.5985
G0 F9000 X147.927 Y202.054
G1 F3600 X142.042 Y191.860 E119.3736
G0 F9000 X141.882 Y192.526
G1 F3600 X147.268 Y201.855 E120.0830
G0 F9000 X146.561 Y201.571
G1 F3600 X141.788 Y193.304 E120.7117
G0 F9000 X141.743 Y194.168
G1 F3600 X145.780 Y201.160 E121.2434
G0 F9000 X144.873 Y200.531
G1 F3600 X141.826 Y195.254 E121.6447
G0 F9000 X142.270 Y196.966
G1 F3600 X143.604 Y199.275 E121.8203
;PRINTING_TIME: 58
;REMAINING_TIME: 5566
;LAYER:0
;Z:2.190
;HEIGHT:0.300
;FLOW:100.0
M106 P2 S255
;PRINTING: ModeloMT05_pilar_garcia_olano.stl
;PRINTING_ID: 0
G1 F2400 E121.3203
G0 F300 Z2.190
G0 F9000 X148.252 Y191.445
;TYPE:WALL-INNER
;WIDTH:0.400
G1 F1500 E121.8203
G1 F600 X148.796 Y191.155 E121.8510
G1 X149.385 Y190.976 E121.8817
G1 X149.999 Y190.916 E121.9125
G1 X150.626 Y190.979 E121.9440
G1 X151.204 Y191.155 E121.9741
G1 X151.748 Y191.445 E122.0049
G1 X152.226 Y191.837 E122.0357
G1 X152.617 Y192.314 E122.0665
G1 X152.908 Y192.858 E122.0973
G1 X153.087 Y193.448 E122.1280
G1 X153.147 Y194.062 E122.1588
G1 X153.084 Y194.688 E122.1902
G1 X152.908 Y195.267 E122.2204
G1 X152.617 Y195.811 E122.2512
G1 X152.226 Y196.288 E122.2819
G1 X151.748 Y196.680 E122.3128
G1 X151.204 Y196.970 E122.3435
G1 X150.614 Y197.149 E122.3743
G1 X150.001 Y197.210 E122.4050
G1 X149.375 Y197.146 E122.4364
G1 X148.796 Y196.970 E122.4666
G1 X148.252 Y196.680 E122.4974
G1 X147.774 Y196.288 E122.5282
G1 X147.383 Y195.811 E122.5590
G1 X147.092 Y195.267 E122.5897
G1 X146.913 Y194.677 E122.6205
G1 X146.853 Y194.063 E122.6513
G1 X146.916 Y193.437 E122.6827
G1 X147.092 Y192.858 E122.7129
G1 X147.383 Y192.314 E122.7436
G1 X147.774 Y191.837 E122.7744
G1 X148.252 Y191.445 E122.8053
G1 F2400 E122.3053
G0 F9000 X148.029 Y191.111
M204 P500.00
;TYPE:WALL-OUTER
;WIDTH:0.400
G1 F1500 E122.8053
G1 F600 X148.642 Y190.784 E122.8399
G1 X149.307 Y190.582 E122.8746
G1 X150.000 Y190.514 E122.9093
G1 X150.705 Y190.585 E122.9447
G1 X151.358 Y190.784 E122.9787
G1 X151.971 Y191.111 E123.0134
G1 X152.510 Y191.553 E123.0482
G1 X152.951 Y192.091 E123.0829
G1 X153.279 Y192.704 E123.1176
G1 X153.481 Y193.370 E123.1523
G1 X153.549 Y194.063 E123.1870
G1 X153.478 Y194.767 E123.2223
G1 X153.279 Y195.421 E123.2564
G1 X152.951 Y196.034 E123.2911
G1 X152.510 Y196.572 E123.3258
G1 X151.971 Y197.014 E123.3606
G1 X151.358 Y197.341 E123.3953
G1 X150.693 Y197.543 E123.4299
G1 X150.000 Y197.612 E123.4647
G1 X149.296 Y197.540 E123.5000
G1 X148.642 Y197.341 E123.5341
G1 X148.029 Y197.014 E123.5688
G1 X147.490 Y196.572 E123.6035
G1 X147.049 Y196.034 E123.6382
G1 X146.721 Y195.421 E123.6729
G1 X146.519 Y194.755 E123.7077
G1 X146.451 Y194.063 E123.7423
G1 X146.522 Y193.358 E123.7777
G1 X146.721 Y192.704 E123.8118
G1 X147.049 Y192.091 E123.8465
G1 X147.490 Y191.553 E123.8812
G1 X148.029 Y191.111 E123.9160
G1 F2400 E123.4160
G0 F9000 X148.307 Y191.529
G0 X148.103 Y191.802
G0 X148.181 Y191.863
M204 P1000.00
;TYPE:WALL-INNER
;WIDTH:0.400
G1 F1500 E123.9160
G1 F600 X147.691 Y192.384 E123.9516
G1 X147.346 Y193.012 E123.9874
G1 X147.168 Y193.705 E124.0231
G1 X147.168 Y194.421 E124.0588
G1 X147.346 Y195.113 E124.0945
G1 X147.691 Y195.741 E124.1302
G1 X148.181 Y196.262 E124.1659
G1 X148.784 Y196.645 E124.2015
G1 X149.464 Y196.867 E124.2372
G1 X150.180 Y196.911 E124.2730
G1 X150.882 Y196.777 E124.3087
G1 X151.530 Y196.472 E124.3444
G1 X152.081 Y196.017 E124.3800
G1 X152.502 Y195.437 E124.4158
G1 X152.764 Y194.772 E124.4515
G1 X152.855 Y194.063 E124.4871
G1 X152.764 Y193.353 E124.5228
G1 X152.502 Y192.688 E124.5585
G1 X152.081 Y192.108 E124.5942
G1 X151.530 Y191.653 E124.6299
G1 X150.882 Y191.348 E124.6656
G1 X150.180 Y191.214 E124.7013
G1 X149.464 Y191.258 E124.7371
G1 X148.784 Y191.480 E124.7728
