;Sliced by ideaMaker 5.0.6.8380, 2024-07-13 12:51:59 UTC-0300
;Slicer Version: 5.0.6.8380
;Dimension: 305.000 305.000 605.000 0.400 0.400
;Plate Shape: 0
;Origin Center: 0
;Extruder Offset #1: 0.000 0.000
;Filament Diameter #1: 1.750
;Filament Diameter #2: 1.750
;Filament Compensation #1: 90.00
;Filament Compensation #2: 90.00
;Filament Density #1: 1240.00
;Filament Density #2: 1240.00
;Filament Type #1: PLA
;Filament Type #2: PLA
;Filament Name #1: [Raise3D] Premium PLA 1.75mm
;Filament Name #2: [Raise3D] Premium PLA 1.75mm
;Firmware: Raise3D Pro2
;Bounding Box: 125.279 179.376 95.943 208.738 0.000 24.320
;Model Gap: 0.150
M221 T0 S90.00
M140 S60.00
M104 T0 S205.00
M109 T0 S205.00
T0
M190 S60.00
G21
G90
M82
M107
G28 X0 Y0
G28 Z0
G1 Z15.0 F300
G92 E0
G1 F140 E29
G1 X20 Y0 F140 E30
G92 E0
G1 F6000.0
M117 Printing...
M1001
;TOTAL_NUM: 1
;PRINTING_TIME: 0
;REMAINING_TIME: 8695
M106 S0
;LAYER:-2
;Z:0.500
;HEIGHT:0.500
;PRINTING: NON-OBJECT
;PRINTING_ID: -1
G0 F6000 X132.370 Y105.307
G0 F300 Z0.500
;TYPE:RAFT
;WIDTH:0.800
G1 F480 X132.696 Y104.906 E0.0859
G1 X132.962 Y104.637 E0.1489
G1 X133.347 Y104.319 E0.2319
G1 X133.833 Y103.832 E0.3463
G1 X134.159 Y103.445 E0.4305
G1 X134.404 Y103.202 E0.4879
G1 X134.804 Y102.876 E0.5737
G1 X135.588 Y102.363 E0.7295
G1 X136.935 Y101.365 E1.0083
G1 X137.450 Y100.959 E1.1173
G1 X137.765 Y100.746 E1.1806
G1 X138.344 Y100.429 E1.2903
G1 X138.850 Y100.113 E1.3895
G1 X139.370 Y99.743 E1.4957
G1 X139.786 Y99.510 E1.5750
G1 X140.685 Y99.065 E1.7418
G1 X141.731 Y98.635 E1.9299
G1 X142.429 Y98.286 E2.0596
G1 X142.859 Y98.097 E2.1378
G1 X144.308 Y97.654 E2.3897
G1 X144.910 Y97.412 E2.4976
G1 X145.542 Y97.240 E2.6066
G1 X148.517 Y96.646 E3.1111
G1 X148.971 Y96.574 E3.1875
G1 X150.777 Y96.373 E3.4897
G1 X151.276 Y96.343 E3.5728
G1 X154.383 Y96.343 E4.0895
G1 X154.925 Y96.377 E4.1799
G1 X156.747 Y96.583 E4.4848
G1 X157.172 Y96.652 E4.5564
G1 X159.204 Y97.062 E4.9011
G1 X159.806 Y97.227 E5.0049
G1 X160.434 Y97.440 E5.1152
G1 X160.741 Y97.563 E5.1702
G1 X161.612 Y97.829 E5.3217
G1 X162.260 Y98.051 E5.4356
G1 X162.768 Y98.263 E5.5271
G1 X165.349 Y99.550 E6.0067
G1 X166.299 Y100.127 E6.1916
G1 X167.228 Y100.600 E6.3649
G1 X167.706 Y100.888 E6.4577
G1 X168.125 Y101.210 E6.5456
G1 X168.644 Y101.706 E6.6650
G1 X169.089 Y102.076 E6.7613
G1 X169.472 Y102.365 E6.8410
G1 X169.741 Y102.607 E6.9012
G1 X172.369 Y105.234 E7.5192
G1 X172.699 Y105.601 E7.6012
G1 X173.016 Y106.023 E7.6890
G1 X173.336 Y106.398 E7.7710
G1 X173.606 Y106.672 E7.8350
G1 X174.001 Y107.126 E7.9350
G1 X175.256 Y108.807 E8.2839
G1 X175.536 Y109.229 E8.3681
G1 X176.142 Y110.421 E8.5905
G1 X176.534 Y111.405 E8.7667
G1 X177.406 Y113.164 E9.0932
G1 X177.763 Y114.211 E9.2771
G1 X178.030 Y115.163 E9.4415
G1 X178.336 Y115.914 E9.5764
G1 X178.468 Y116.403 E9.6606
G1 X178.594 Y117.106 E9.7794
G1 X178.685 Y117.469 E9.8416
G1 X178.753 Y117.935 E9.9200
G1 X178.813 Y119.128 E10.1186
G1 X178.919 Y119.674 E10.2111
G1 X178.972 Y120.171 E10.2942
G1 X178.976 Y125.528 E11.1851
G1 X178.934 Y126.091 E11.2790
G1 X178.853 Y126.538 E11.3545
G1 X178.773 Y127.210 E11.4671
G1 X178.743 Y127.792 E11.5640
G1 X178.661 Y128.309 E11.6510
G1 X178.190 Y130.602 E12.0403
G1 X178.058 Y131.325 E12.1626
G1 X177.794 Y132.383 E12.3439
G1 X177.454 Y134.140 E12.6415
G1 X177.241 Y134.996 E12.7882
G1 X177.077 Y136.028 E12.9620
G1 X176.835 Y137.219 E13.1641
G1 X176.677 Y138.228 E13.3339
G1 X176.426 Y139.456 E13.5424
G1 X176.162 Y141.122 E13.8229
G1 X176.123 Y141.564 E13.8967
G1 X176.059 Y141.924 E13.9575
G1 X175.757 Y142.973 E14.1390
G1 X175.653 Y143.542 E14.2352
G1 X175.393 Y144.587 E14.4143
G1 X175.258 Y145.325 E14.5391
G1 X174.994 Y146.384 E14.7206
G1 X174.856 Y147.132 E14.8471
G1 X174.593 Y148.185 E15.0275
G1 X174.053 Y150.943 E15.4949
G1 X173.793 Y151.986 E15.6737
G1 X173.454 Y153.740 E15.9708
G1 X173.194 Y154.785 E16.1498
G1 X172.055 Y160.536 E17.1248
G1 X171.683 Y161.785 E17.3415
G1 X171.426 Y163.056 E17.5572
G1 X171.256 Y164.130 E17.7380
G1 X171.110 Y164.643 E17.8267
G1 X171.026 Y164.871 E17.8671
G1 X170.882 Y165.391 E17.9569
G1 X170.791 Y165.798 E18.0262
G1 X170.426 Y167.657 E18.3413
G1 X170.257 Y168.729 E18.5217
G1 X169.426 Y172.856 E19.2218
G1 X169.256 Y173.935 E19.4035
G1 X168.960 Y174.953 E19.5798
G1 X168.635 Y176.620 E19.8622
G1 X168.454 Y177.736 E20.0503
G1 X168.374 Y178.406 E20.1625
G1 X168.325 Y179.146 E20.2858
G1 X167.258 Y184.523 E21.1974
G1 X166.994 Y185.585 E21.3794
G1 X165.858 Y191.323 E22.3522
G1 X165.594 Y192.385 E22.5342
G1 X164.458 Y198.125 E23.5072
G1 X164.194 Y199.182 E23.6884
G1 X164.017 Y200.091 E23.8424
G1 X163.681 Y201.119 E24.0223
G1 X163.466 Y201.608 E24.1111
G1 X163.298 Y201.906 E24.1680
G1 X162.846 Y202.859 E24.3434
G1 X162.571 Y203.318 E24.4324
G1 X162.246 Y203.737 E24.5206
G1 X161.777 Y204.234 E24.6342
G1 X160.939 Y205.068 E24.8308
G1 X160.639 Y205.336 E24.8977
G1 X160.231 Y205.634 E24.9818
G1 X159.842 Y205.959 E25.0661
G1 X159.365 Y206.393 E25.1733
G1 X158.808 Y206.782 E25.2863
G1 X157.955 Y207.221 E25.4458
G1 X156.380 Y207.853 E25.7281
G1 X155.616 Y208.103 E25.8617
G1 X154.985 Y208.258 E25.9698
G1 X154.466 Y208.325 E26.0568
G1 X154.082 Y208.338 E26.1207
G1 X151.064 Y208.327 E26.6226
G1 X150.574 Y208.300 E26.7042
G1 X149.900 Y208.184 E26.8180
G1 X149.550 Y208.082 E26.8786
G1 X148.249 Y207.644 E27.1069
G1 X147.740 Y207.434 E27.1984
G1 X147.361 Y207.252 E27.2684
G1 X146.384 Y206.869 E27.4429
G1 X145.780 Y206.548 E27.5566
G1 X145.240 Y206.159 E27.6673
G1 X144.495 Y205.518 E27.8307
G1 X144.088 Y205.258 E27.9111
G1 X143.808 Y205.048 E27.9693
G1 X143.297 Y204.569 E28.0857
G1 X142.967 Y204.165 E28.1725
G1 X142.688 Y203.733 E28.2580
G1 X142.422 Y203.186 E28.3592
G1 X142.100 Y202.612 E28.4686
G1 X141.518 Y201.458 E28.6836
G1 X140.911 Y199.935 E28.9562
G1 X140.679 Y199.228 E29.0799
G1 X140.590 Y198.871 E29.1411
G1 X140.535 Y198.535 E29.1978
G1 X140.361 Y197.734 E29.3341
G1 X140.294 Y197.312 E29.4051
G1 X140.162 Y196.739 E29.5029
G1 X140.094 Y196.312 E29.5748
G1 X139.962 Y195.739 E29.6726
G1 X139.894 Y195.312 E29.7445
G1 X139.762 Y194.739 E29.8423
G1 X139.694 Y194.312 E29.9142
G1 X139.562 Y193.739 E30.0120
G1 X139.458 Y193.144 E30.1124
G1 X139.164 Y191.950 E30.3169
G1 X139.131 Y191.786 E30.3447
G1 X139.150 Y191.781 E30.3480
G1 X138.765 Y189.956 E30.6582
G1 X138.694 Y189.512 E30.7330
G1 X138.562 Y188.939 E30.8308
G1 X138.494 Y188.512 E30.9027
G1 X138.362 Y187.939 E31.0004
G1 X138.294 Y187.512 E31.0724
G1 X138.162 Y186.939 E31.1701
G1 X138.058 Y186.344 E31.2706
G1 X137.764 Y185.150 E31.4751
G1 X137.731 Y184.986 E31.5029
G1 X137.757 Y184.979 E31.5074
G1 X137.562 Y184.135 E31.6514
G1 X137.494 Y183.712 E31.7227
G1 X137.362 Y183.139 E31.8205
G1 X137.294 Y182.712 E31.8924
G1 X137.162 Y182.139 E31.9902
G1 X137.094 Y181.712 E32.0621
G1 X136.962 Y181.138 E32.1600
G1 X136.894 Y180.716 E32.2311
G1 X136.567 Y179.166 E32.4945
G1 X136.491 Y178.581 E32.5926
G1 X136.433 Y177.877 E32.7101
G1 X136.188 Y176.865 E32.8833
G1 X136.068 Y176.181 E32.9988
G1 X135.766 Y174.956 E33.2086
G1 X135.691 Y174.384 E33.3045
G1 X135.535 Y173.582 E33.4404
G1 X135.430 Y172.828 E33.5670
G1 X135.364 Y172.548 E33.6148
G1 X135.294 Y172.112 E33.6883
G1 X135.162 Y171.539 E33.7860
G1 X135.094 Y171.112 E33.8580
G1 X134.962 Y170.539 E33.9557
G1 X134.894 Y170.112 E34.0276
G1 X134.762 Y169.539 E34.1254
G1 X134.694 Y169.113 E34.1972
G1 X134.565 Y168.551 E34.2931
G1 X134.429 Y167.626 E34.4485
G1 X134.364 Y167.348 E34.4960
G1 X134.294 Y166.912 E34.5695
G1 X134.162 Y166.339 E34.6672
G1 X134.094 Y165.912 E34.7392
G1 X133.940 Y165.244 E34.8532
G1 X133.829 Y164.841 E34.9227
G1 X133.645 Y164.296 E35.0183
G1 X133.565 Y163.947 E35.0779
G1 X133.429 Y163.026 E35.2327
G1 X133.364 Y162.748 E35.2802
G1 X133.294 Y162.312 E35.3536
G1 X133.140 Y161.644 E35.4676
G1 X133.029 Y161.241 E35.5371
G1 X132.845 Y160.696 E35.6328
G1 X132.762 Y160.338 E35.6939
G1 X132.694 Y159.912 E35.7656
G1 X132.562 Y159.339 E35.8634
G1 X132.494 Y158.912 E35.9353
G1 X132.362 Y158.339 E36.0331
G1 X132.259 Y157.750 E36.1326
G1 X131.965 Y156.356 E36.3695
G1 X131.894 Y155.912 E36.4443
G1 X131.762 Y155.339 E36.5420
G1 X131.694 Y154.912 E36.6139
G1 X131.562 Y154.339 E36.7117
G1 X131.494 Y153.912 E36.7836
G1 X131.362 Y153.339 E36.8814
G1 X131.294 Y152.912 E36.9533
G1 X131.162 Y152.339 E37.0511
G1 X131.058 Y151.744 E37.1516
G1 X130.765 Y150.554 E37.3554
G1 X130.457 Y148.941 E37.6285
G1 X130.164 Y147.743 E37.8336
G1 X130.029 Y146.826 E37.9877
G1 X129.964 Y146.548 E38.0352
G1 X129.894 Y146.112 E38.1086
G1 X129.762 Y145.539 E38.2064
G1 X129.694 Y145.113 E38.2781
G1 X129.566 Y144.555 E38.3734
G1 X129.491 Y143.986 E38.4688
G1 X129.293 Y142.908 E38.6511
G1 X129.162 Y142.338 E38.7483
G1 X129.094 Y141.916 E38.8194
G1 X128.764 Y140.352 E39.0852
G1 X128.694 Y139.912 E39.1593
G1 X128.562 Y139.339 E39.2571
G1 X128.457 Y138.743 E39.3578
G1 X128.187 Y137.664 E39.5427
G1 X127.857 Y135.940 E39.8346
G1 X127.588 Y134.867 E40.0186
G1 X127.057 Y132.140 E40.4806
G1 X126.765 Y130.954 E40.6837
G1 X126.457 Y129.340 E40.9570
G1 X126.247 Y128.505 E41.1002
G1 X126.139 Y128.001 E41.1859
G1 X126.084 Y127.486 E41.2720
G1 X126.045 Y126.743 E41.3958
G1 X125.740 Y125.207 E41.6562
G1 X125.686 Y124.704 E41.7403
G1 X125.679 Y122.242 E42.1497
G1 X125.704 Y121.761 E42.2298
G1 X125.866 Y120.737 E42.4023
G1 X125.924 Y119.780 E42.5617
G1 X126.576 Y116.466 E43.1234
G1 X126.854 Y115.342 E43.3159
G1 X126.962 Y114.995 E43.3764
G1 X127.269 Y114.202 E43.5178
G1 X127.440 Y113.393 E43.6553
G1 X127.602 Y112.889 E43.7433
G1 X127.757 Y112.532 E43.8081
G1 X128.539 Y110.973 E44.0981
G1 X128.787 Y110.521 E44.1838
G1 X129.142 Y109.966 E44.2934
G1 X129.531 Y109.189 E44.4379
G1 X129.796 Y108.708 E44.5292
G1 X129.993 Y108.418 E44.5875
G1 X131.359 Y106.599 E44.9658
G1 X131.983 Y105.892 E45.1227
G1 X132.370 Y105.307 E45.2393
G0 F6000 X127.260 Y115.247
G1 F480 X127.260 Y131.459 E47.9354
G0 F6000 X129.684 Y143.041
G1 F480 X129.684 Y109.702 E53.4797
G0 F6000 X132.108 Y106.294
G1 F480 X132.108 Y155.178 E61.6091
G0 F6000 X134.532 Y166.340
G1 F480 X134.532 Y103.582 E72.0458
G0 F6000 X136.956 Y101.797
G1 F480 X136.956 Y179.265 E84.9288
G0 F6000 X139.380 Y191.128
G1 F480 X139.380 Y100.178 E100.0538
G0 F6000 X141.804 Y98.993
G1 F480 X141.804 Y201.202 E117.0513
G0 F6000 X144.228 Y204.912
G1 F480 X144.228 Y98.055 E134.8217
G0 F6000 X146.652 Y97.385
G1 F480 X146.652 Y206.587 E152.9820
G0 F6000 X149.076 Y207.541
G1 F480 X149.076 Y96.924 E171.3777
G0 F6000 X151.500 Y96.703
G1 F480 X151.500 Y207.968 E189.8812
G0 F6000 X153.924 Y207.977
G1 F480 X153.924 Y96.703 E208.3861
G0 F6000 X156.348 Y96.900
G1 F480 X156.348 Y207.480 E226.7756
G0 F6000 X158.772 Y206.369
G1 F480 X158.772 Y97.342 E244.9069
G0 F6000 X161.196 Y98.088
G1 F480 X161.196 Y204.305 E262.5708
G0 F6000 X163.620 Y200.149
G1 F480 X163.620 Y99.091 E279.3769
G0 F6000 X166.044 Y100.394
G1 F480 X166.044 Y188.532 E294.0343
G0 F6000 X168.468 Y175.594
G1 F480 X168.468 Y102.028 E306.2683
G0 F6000 X170.892 Y104.267
G1 F480 X170.892 Y164.091 E316.2171
G0 F6000 X173.316 Y152.557
G1 F480 X173.316 Y106.891 E323.8114
G0 F6000 X175.740 Y110.427
G1 F480 X175.740 Y141.662 E329.0058
G0 F6000 X178.164 Y128.938
G1 F480 X178.164 Y116.750 E331.0327
;PRINTING_TIME: 254
;REMAINING_TIME: 8441
M106 S255
;LAYER:-2
;Z:1.000
;HEIGHT:0.500
;PRINTING: NON-OBJECT
;PRINTING_ID: -1
G0 F300 Z1.000
G0 F6000 X178.594 Y117.106
;TYPE:RAFT
;WIDTH:0.800
G1 F960 X178.685 Y117.469 E331.0949
G1 X178.753 Y117.935 E331.1732
G1 X178.813 Y119.128 E331.3719
G1 X178.919 Y119.674 E331.4644
G1 X178.972 Y120.171 E331.5475
G1 X178.976 Y125.528 E332.4384
G1 X178.934 Y126.091 E332.5323
G1 X178.853 Y126.538 E332.6078
G1 X178.773 Y127.210 E332.7203
G1 X178.743 Y127.792 E332.8173
G1 X178.661 Y128.309 E332.9043
G1 X178.190 Y130.602 E333.2936
G1 X178.058 Y131.325 E333.4158
G1 X177.794 Y132.383 E333.5972
G1 X177.454 Y134.140 E333.8948
G1 X177.241 Y134.996 E334.0415
G1 X177.077 Y136.028 E334.2152
G1 X176.835 Y137.219 E334.4174
G1 X176.677 Y138.228 E334.5872
G1 X176.426 Y139.456 E334.7956
G1 X176.162 Y141.122 E335.0762
G1 X176.123 Y141.564 E335.1499
G1 X176.059 Y141.924 E335.2107
G1 X175.757 Y142.973 E335.3923
G1 X175.653 Y143.542 E335.4885
G1 X175.393 Y144.587 E335.6676
G1 X175.258 Y145.325 E335.7923
G1 X174.994 Y146.384 E335.9738
G1 X174.856 Y147.132 E336.1003
G1 X174.593 Y148.185 E336.2808
G1 X174.053 Y150.943 E336.7482
G1 X173.793 Y151.986 E336.9269
G1 X173.454 Y153.740 E337.2240
G1 X173.194 Y154.785 E337.4031
G1 X172.055 Y160.536 E338.3781
G1 X171.683 Y161.785 E338.5948
G1 X171.426 Y163.056 E338.8105
G1 X171.256 Y164.130 E338.9913
G1 X171.110 Y164.643 E339.0800
G1 X171.026 Y164.871 E339.1204
G1 X170.882 Y165.391 E339.2101
G1 X170.791 Y165.798 E339.2795
G1 X170.426 Y167.657 E339.5945
G1 X170.257 Y168.729 E339.7750
G1 X169.426 Y172.856 E340.4751
G1 X169.256 Y173.935 E340.6568
G1 X168.960 Y174.953 E340.8331
G1 X168.635 Y176.620 E341.1155
G1 X168.454 Y177.736 E341.3035
G1 X168.374 Y178.406 E341.4157
G1 X168.325 Y179.146 E341.5391
G1 X167.258 Y184.523 E342.4507
G1 X166.994 Y185.585 E342.6327
G1 X165.858 Y191.323 E343.6054
G1 X165.594 Y192.385 E343.7874
G1 X164.458 Y198.125 E344.7605
G1 X164.194 Y199.182 E344.9417
G1 X164.017 Y200.091 E345.0957
G1 X163.681 Y201.119 E345.2756
G1 X163.466 Y201.608 E345.3644
G1 X163.298 Y201.906 E345.4213
G1 X162.846 Y202.859 E345.5967
G1 X162.571 Y203.318 E345.6857
G1 X162.246 Y203.737 E345.7739
G1 X161.777 Y204.234 E345.8875
G1 X160.939 Y205.068 E346.0841
G1 X160.639 Y205.336 E346.1510
G1 X160.231 Y205.634 E346.2350
G1 X159.842 Y205.959 E346.3193
G1 X159.365 Y206.393 E346.4266
G1 X158.808 Y206.782 E346.5396
G1 X157.955 Y207.221 E346.6991
G1 X156.380 Y207.853 E346.9813
G1 X155.616 Y208.103 E347.1150
G1 X154.985 Y208.258 E347.2231
G1 X154.466 Y208.325 E347.3101
G1 X154.082 Y208.338 E347.3740
G1 X151.064 Y208.327 E347.8759
G1 X150.574 Y208.300 E347.9575
G1 X149.900 Y208.184 E348.0712
G1 X149.550 Y208.082 E348.1319
G1 X148.249 Y207.644 E348.3601
G1 X147.740 Y207.434 E348.4517
G1 X147.361 Y207.252 E348.5216
G1 X146.384 Y206.869 E348.6961
G1 X145.780 Y206.548 E348.8099
G1 X145.240 Y206.159 E348.9206
G1 X144.495 Y205.518 E349.0840
G1 X144.088 Y205.258 E349.1643
G1 X143.808 Y205.048 E349.2225
G1 X143.297 Y204.569 E349.3390
G1 X142.967 Y204.165 E349.4258
G1 X142.688 Y203.733 E349.5113
G1 X142.422 Y203.186 E349.6124
G1 X142.100 Y202.612 E349.7219
G1 X141.518 Y201.458 E349.9368
G1 X140.911 Y199.935 E350.2095
G1 X140.679 Y199.228 E350.3332
G1 X140.590 Y198.871 E350.3944
G1 X140.535 Y198.535 E350.4510
G1 X140.361 Y197.734 E350.5873
G1 X140.294 Y197.312 E350.6584
G1 X140.162 Y196.739 E350.7562
G1 X140.094 Y196.312 E350.8281
G1 X139.962 Y195.739 E350.9259
G1 X139.894 Y195.312 E350.9978
G1 X139.762 Y194.739 E351.0956
G1 X139.694 Y194.312 E351.1675
G1 X139.562 Y193.739 E351.2653
G1 X139.458 Y193.144 E351.3657
G1 X139.164 Y191.950 E351.5702
G1 X139.131 Y191.786 E351.5980
G1 X139.150 Y191.781 E351.6013
G1 X138.765 Y189.956 E351.9115
G1 X138.694 Y189.512 E351.9862
G1 X138.562 Y188.939 E352.0840
G1 X138.494 Y188.512 E352.1559
G1 X138.362 Y187.939 E352.2537
G1 X138.294 Y187.512 E352.3256
G1 X138.162 Y186.939 E352.4234
G1 X138.058 Y186.344 E352.5239
G1 X137.764 Y185.150 E352.7284
G1 X137.731 Y184.986 E352.7562
G1 X137.757 Y184.979 E352.7606
G1 X137.562 Y184.135 E352.9047
G1 X137.494 Y183.712 E352.9760
G1 X137.362 Y183.139 E353.0737
G1 X137.294 Y182.712 E353.1456
G1 X137.162 Y182.139 E353.2434
G1 X137.094 Y181.712 E353.3153
G1 X136.962 Y181.138 E353.4133
G1 X136.894 Y180.716 E353.4844
G1 X136.567 Y179.166 E353.7478
G1 X136.491 Y178.581 E353.8459
G1 X136.433 Y177.877 E353.9634
G1 X136.188 Y176.865 E354.1365
G1 X136.068 Y176.181 E354.2520
G1 X135.766 Y174.956 E354.4618
G1 X135.691 Y174.384 E354.5578
G1 X135.535 Y173.582 E354.6937
G1 X135.430 Y172.828 E354.8203
G1 X135.364 Y172.548 E354.8681
G1 X135.294 Y172.112 E354.9415
G1 X135.162 Y171.539 E355.0393
G1 X135.094 Y171.112 E355.1112
G1 X134.962 Y170.539 E355.2090
G1 X134.894 Y170.112 E355.2809
G1 X134.762 Y169.539 E355.3787
G1 X134.694 Y169.113 E355.4504
G1 X134.565 Y168.551 E355.5463
G1 X134.429 Y167.626 E355.7018
G1 X134.364 Y167.348 E355.7493
